src/static/logos/optimizely.svg

<?xml version="1.0" encoding="UTF-8"?>
<svg width="256px" height="256px" viewBox="0 0 256 256" version="1.1" xmlns="http://www.w3.org/2000/svg" xmlns:xlink="http://www.w3.org/1999/xlink" preserveAspectRatio="xMidYMid">
		<g>
				<path d="M121.030366,96.6618868 L78.2073298,139.484923 C76.0628272,135.530997 74.2534031,131.443039 72.7120419,127.288065 C70.7685864,121.993824 69.2942408,116.632567 68.3560209,111.137279 L111.259293,68.2193475 C116.754581,69.1575674 122.139529,70.5923842 127.43377,72.5358397 C122.809686,79.773536 120.561257,88.3519392 121.030366,96.6618868 Z M159.162304,134.793824 C167.472251,135.262934 175.920746,133.142777 183.225458,128.451677 C185.270877,133.731782 186.78822,139.028903 187.636715,144.551481 L144.753927,187.46817 C139.258639,186.52995 133.830366,185.055604 128.603141,183.112149 C124.448168,181.570787 120.356675,179.707109 116.402749,177.562607 C143.954319,149.57731 158.207504,135.321049 159.162304,134.793824 Z M185.834555,185.725761 C178.117016,188.298012 170.223822,189.408745 162.379058,188.875499 C180.082897,170.922271 188.973647,162.03152 189.051309,162.203248 C189.275654,170.112672 193.552094,183.15351 185.834555,185.725761 Z M70.0984293,69.9896355 C77.2492147,67.6097926 85.6856021,66.4574365 93.7057592,66.742646 L66.8816754,93.5121486 C66.4238281,85.6165551 67.2897949,77.6089868 70.0984293,69.9896355 Z M143.953992,130.904901 L104.74555,170.178117 C101.126702,167.497489 97.7089005,164.548798 94.4921466,161.332044 C91.2753927,158.048274 88.3267016,154.630473 85.6460733,151.078641 L124.850262,111.874452 C126.793717,115.96241 129.40733,119.71529 132.758115,123.066075 C136.108901,126.416861 139.93305,128.961445 143.953992,130.904901 Z" fill="#080738"></path>
				<path d="M94.5591623,27.6439791 C131.417801,-9.21465969 191.262827,-9.21465969 228.188482,27.6439791 C265.114136,64.5696335 265.114136,124.347644 228.188482,161.273298 C215.991623,173.470157 201.315183,181.579058 185.834555,185.734031 C187.912042,178.027225 188.984293,170.119372 189.051309,162.211518 L162.379058,188.88377 C156.481675,188.950785 150.584293,188.481675 144.753927,187.409424 L187.576963,144.586387 C186.638743,139.091099 185.164398,133.662827 183.220942,128.435602 C185.633508,126.894241 187.912042,125.084817 189.989529,123.00733 C205.73822,107.191623 205.73822,81.591623 189.989529,65.8429319 C174.173822,50.0942408 148.573822,50.0942408 132.825131,65.8429319 C130.747644,67.9874346 128.93822,70.1989529 127.396859,72.6115183 C122.102618,70.6680628 116.741361,69.1937173 111.246073,68.2554974 L68.4230366,111.078534 C67.3507853,105.248168 66.8816754,99.3507853 66.9486911,93.4534031 L93.6209424,66.7811518 C85.713089,66.8481675 77.8052356,67.9204188 70.0984293,69.9979058 C74.2534031,54.4502618 82.3623037,39.8408377 94.5591623,27.6439791 Z M124.850262,111.882723 L111.91623,124.816754 L85.6460733,151.086911 C82.8314136,147.334031 80.3518325,143.44712 78.2073298,139.426178 L96.7036649,120.929843 L120.963351,96.6701571 C121.298429,101.897382 122.571728,107.057592 124.850262,111.882723 Z M159.162304,134.802094 L134.902618,159.06178 L116.406283,177.558115 C112.38534,175.413613 108.498429,172.934031 104.74555,170.119372 L131.015707,143.849215 L143.949738,130.915183 C148.774869,133.260733 153.935079,134.534031 159.162304,134.802094 Z" fill="#0037FF"></path>
				<path d="M70.0984293,70 C68.0209424,77.7068063 66.9486911,85.6146597 66.8816754,93.4554974 L0.0670157068,160.270157 C0.335078534,136.412565 9.51623037,112.689005 27.7445026,94.460733 C39.9413613,82.2638743 54.617801,74.1549738 70.0984293,70 Z M95.4973822,255.767539 L162.3768,188.883802 C170.284653,188.816787 178.127749,187.813613 185.834555,185.736126 C181.679581,201.28377 173.570681,215.893194 161.373822,228.090052 C143.14555,246.318325 119.354974,255.499476 95.4973822,255.767539 Z M65.9434555,132.726702 C57.4994764,141.170681 53.6125654,152.429319 54.1486911,163.486911 L11.3926702,206.242932 C6.56753927,197.329843 3.28376963,187.746597 1.54136126,177.962304 L68.3560209,111.147644 C69.2942408,116.642932 70.7685864,122.004188 72.7120419,127.298429 C70.2994764,128.839791 68.0209424,130.649215 65.9434555,132.726702 Z M128.536126,183.122513 C133.830366,185.065969 139.258639,186.540314 144.686911,187.478534 L77.8722513,254.293194 C68.0879581,252.550785 58.504712,249.267016 49.591623,244.441885 L92.347644,201.685864 C103.405236,202.289005 114.663874,198.335079 123.107853,189.891099 C125.18534,187.813613 126.994764,185.535079 128.536126,183.122513 Z M65.9434555,189.891099 C69.2942408,193.174869 73.1141361,195.855497 77.1350785,197.798953 L37.9308901,237.003141 C34.3120419,234.322513 30.8942408,231.373822 27.6774869,228.157068 C24.460733,224.873298 21.5120419,221.455497 18.8314136,217.903665 L58.0356021,178.699476 C59.9790576,182.787435 62.5926702,186.540314 65.9434555,189.891099 Z" fill="#0037FF"></path>
		</g>
</svg>

<svg width="256" height="256" xmlns="http://www.w3.org/2000/svg" preserveAspectRatio="xMidYMid"><path d="M121.03 96.662l-42.823 42.823c-2.144-3.954-3.954-8.042-5.495-12.197-1.943-5.294-3.418-10.655-4.356-16.15l42.903-42.919a91.499 91.499 0 0116.175 4.317c-4.624 7.238-6.873 15.816-6.404 24.126zm38.132 38.132a40.328 40.328 0 0024.063-6.342c2.046 5.28 3.563 10.577 4.412 16.1l-42.883 42.916a89.85 89.85 0 01-16.15-4.356 94.83 94.83 0 01-12.201-5.55c27.551-27.985 41.805-42.241 42.76-42.768zm26.673 50.932c-7.718 2.572-15.611 3.683-23.456 3.15 17.704-17.954 26.595-26.844 26.672-26.673.225 7.91 4.501 20.95-3.216 23.523zM70.098 69.99c7.151-2.38 15.588-3.533 23.608-3.247l-26.824 26.77c-.458-7.896.408-15.904 3.216-23.523zm73.856 60.915l-39.208 39.273a91.553 91.553 0 01-10.254-8.846 105.308 105.308 0 01-8.846-10.253l39.204-39.205a40.04 40.04 0 007.908 11.192c3.35 3.35 7.175 5.895 11.196 7.839z" fill="#080738"/><path d="M94.56 27.644c36.858-36.859 96.703-36.859 133.628 0 36.926 36.926 36.926 96.704 0 133.63-12.196 12.196-26.873 20.305-42.353 24.46a93.429 93.429 0 003.216-23.522l-26.672 26.672c-5.897.067-11.795-.402-17.625-1.475l42.823-42.823a89.85 89.85 0 00-4.356-16.15 40.081 40.081 0 006.769-5.429c15.748-15.815 15.748-41.415 0-57.164-15.816-15.749-41.416-15.749-57.165 0-2.077 2.144-3.887 4.356-5.428 6.769-5.294-1.944-10.656-3.418-16.15-4.357L68.422 111.08c-1.072-5.83-1.541-11.728-1.474-17.626L93.62 66.781a93.429 93.429 0 00-23.523 3.217C74.253 54.45 82.362 39.84 94.56 27.644zm30.29 84.239l-12.934 12.934-26.27 26.27a90.051 90.051 0 01-7.439-11.66l18.497-18.497 24.26-24.26c.334 5.227 1.608 10.388 3.886 15.213zm34.312 22.92l-24.26 24.259-18.496 18.496a90.051 90.051 0 01-11.66-7.439l26.27-26.27 12.934-12.934c4.825 2.346 9.985 3.619 15.212 3.887z" fill="#0037FF"/><path d="M70.098 70a93.327 93.327 0 00-3.216 23.455L.067 160.27c.268-23.857 9.45-47.581 27.678-65.81C39.94 82.265 54.618 74.156 70.098 70zm25.4 185.768l66.879-66.884c7.908-.067 15.75-1.07 23.458-3.148-4.155 15.548-12.264 30.157-24.461 42.354-18.228 18.228-42.019 27.41-65.877 27.678zM65.942 132.727c-8.444 8.444-12.33 19.702-11.794 30.76l-42.756 42.756c-4.825-8.913-8.11-18.496-9.852-28.28l66.815-66.815c.938 5.495 2.413 10.856 4.356 16.15a40.081 40.081 0 00-6.769 5.429zm62.593 50.396c5.294 1.943 10.723 3.417 16.15 4.356l-66.814 66.814c-9.784-1.742-19.367-5.026-28.28-9.851l42.756-42.756a40.303 40.303 0 0036.188-18.563zm-62.593 6.768c3.351 3.284 7.171 5.964 11.192 7.908L37.93 237.003a91.553 91.553 0 01-10.254-8.846 105.308 105.308 0 01-8.846-10.253l39.205-39.205a40.04 40.04 0 007.907 11.192z" fill="#0037FF"/></svg>
